X:1
T:Wenn ich dein freundlich
T:Horatio Vecchi
T:Source : Canzonette mit 3 Stimmen/H.Vecchi und G.Capilupi---Nürnberg---P.Kaffmann---1606. Editor : André Vierendeels (18/02/17).
T:Notes : Original clefs : C1, C1, F4 Editorial accidentals above the staff Text Middle German by Valentin Hauszmann German contrafactum of "L'ultime volta" 1597
T:Wenn ich dein freundlich
T:©
T:©
C:Horatio Vecchi
Z:©
%%score [ 1 2 3 ]
L:1/8
Q:1/4=123
M:4/4
K:C
V:1 treble nm="Soprano 1" snm="S 1"
V:2 treble nm="Soprano 2" snm="S 2"
V:3 bass nm="Bass" snm="B"
V:1
"^1)" z2 A3 A A2 | d2 B2 ^c4 | ^c2 A2 =c4- | c2 c2 c2 c2 | c6 c2 | d2 f2 e3 d | cdec d4 | %7
w: Wenn ich dein|freund- lich g'ber-|den, und lieb-|* lich schwenck be-|denck, die|du gabst sche- *||
w: Wenn ich dein|wort be- trach-|te, die du|_ battst, als ich|kunth- schafft|mit dir ma- *||
[M:2/4] e4 ::[M:4/4] z2 e2 d2 c2 | B3 B B2 c2 | c2 d2 G4 | G4 z ccB | A2 A2 z ccB | A2 A2 z ddc | %14
w: den,|und seh zu|rück, wie sichs mit|dir ver- feh-|ret, ein solch un-|trau- en, von ei- ner|frau- en, von ei- ner|
w: chte,|musz ich be-|ken- nen, dasz du|wort ge- ge-|ben, vin ei- tel|Gol- de, wenn nichts redn|sol- te, wenn nichts redn|
 B2 A2 ^G2 A2- | A2 ^G2 !fermata!A4 :| %16
w: frau- en man bö-|* * ret.|
w: sol- te gar e-|* * ben.|
V:2
"^2)""^1)" z2 F3 E ^F2 | ^F2 ^G2 A4 |"^-natural" A2 c2 A4- | A2 A2 A2 A2 | A6 G2 | A2 B2 c2 BA | %6
w: Wenn ich dein|freund- lich g'ber-|den, und lieb-|* lich schwenck be-|denck, dir|du gabst sche- * *|
w: So bald ich|von dir kom-|men, hast du|_ umb an- dre|Lieb dich|an- ge- nom- * *|
 G2 c4 B2 |[M:2/4] c4 ::[M:4/4] z2 c2 B2 A2 | ^G3 G G2 G2 | A2 F2 E4 | EEED C2 C2 | z ccB A2 A2 | %13
w: |den,|und seh zu|rück, wie sichs mit|dir ver- feh-|ret, ein solch un- trau- en,|von ei- ner frau- en,|
w: |men,|und hast dich|mein in kur- zer|zeit ent- bro-|chen, dasz heist bey glau- ben,|süsz mit er- lau- ben,|
 z AAG F2 D2 | z ddc B2 cc | B4 !fermata!A4 :| %16
w: von ei- ner frau- en,|von ei- ner frau- en man|bö- ret.|
w: süsz mit er- lau- ben,|süsz mit er- lau- ben ge-|spro- chen.|
V:3
"^3)""^1)""^4)" z2 D,3 ^C, D,2 | D,2 E,2 A,,4 | A,,2 F,2 F,4- | F,2 F,2 F,2 F,2 | F,4 E,4 | %5
w: Wenn ich dein|freund- lich g'ber-|den, und lieb-|* lich schwenck be-|denck, dir|
w: Jetzt wirdt gar|fein ge- spü-|ret, was du|_ hast für ein|fal- sches|
 D,4 C,4 | C,2 B,,A,, G,,4 |[M:2/4] C,4 ::[M:4/4] z2 C2 G,2 A,2 | E,3 E, E,2 E,2 | F,2 D,2 C,4 | %11
w: du gabst|sche- * * *|den,|und seh zu|rück, wie sichs mit|dir ver- feh-|
w: Hertz ge-|füh- * * *|ret,|das wirdt dir|auch ge- deyn, als|man thut sa-|
 C,CCB, A,2 A,2 | z A,A,G, F,2 F,2 | z F,F,E, D,4 | D,2 D,2 E,4- | E,4 !fermata!A,,4 :| %16
w: ret, ein solch un- trau- en,|von ei- ner frau- en,|von ei- ner frau-|en man bö-|* ret.|
w: gen, gleich wie dem Hun- de,|das Grasz im Mun- de,|dan Grasz im Mun-|de und Ma-|* gen.|

